assets/img/icon_shoppingcart_.svg

<svg width="26" height="25" viewBox="0 0 26 25" fill="none" xmlns="http://www.w3.org/2000/svg">
<path d="M1 0.861694H3.13843C4.46572 0.861694 5.51033 1.94354 5.39973 3.18825L4.37968 14.7745C4.20762 16.6706 5.79298 18.2992 7.8085 18.2992H20.8971C22.6668 18.2992 24.2153 16.9265 24.3505 15.263L25.0141 6.53848C25.1616 4.60744 23.6131 3.03702 21.5607 3.03702H5.69469" stroke="#292D32" stroke-width="0.960916" stroke-miterlimit="10" stroke-linecap="round" stroke-linejoin="round"/>
<path d="M18.5129 24.1272C19.3614 24.1272 20.0491 23.4762 20.0491 22.6731C20.0491 21.87 19.3614 21.219 18.5129 21.219C17.6644 21.219 16.9767 21.87 16.9767 22.6731C16.9767 23.4762 17.6644 24.1272 18.5129 24.1272Z" stroke="#292D32" stroke-width="0.960916" stroke-miterlimit="10" stroke-linecap="round" stroke-linejoin="round"/>
<path d="M8.68111 24.1272C9.52955 24.1272 10.2173 23.4762 10.2173 22.6731C10.2173 21.87 9.52955 21.219 8.68111 21.219C7.83268 21.219 7.1449 21.87 7.1449 22.6731C7.1449 23.4762 7.83268 24.1272 8.68111 24.1272Z" stroke="#292D32" stroke-width="0.960916" stroke-miterlimit="10" stroke-linecap="round" stroke-linejoin="round"/>
<path d="M9.60278 7.84131H24.3505" stroke="#292D32" stroke-width="0.960916" stroke-miterlimit="10" stroke-linecap="round" stroke-linejoin="round"/>
</svg>

<svg xmlns="http://www.w3.org/2000/svg" width="26" height="25" fill="none"><path stroke="#292D32" stroke-linecap="round" stroke-linejoin="round" stroke-miterlimit="10" stroke-width=".961" d="M1 .862h2.138C4.466.862 5.51 1.944 5.4 3.188L4.38 14.774C4.208 16.671 5.793 18.3 7.809 18.3h13.088c1.77 0 3.318-1.372 3.454-3.036l.663-8.725c.148-1.93-1.4-3.501-3.453-3.501H5.695M18.513 24.127c.848 0 1.536-.65 1.536-1.454 0-.803-.688-1.454-1.536-1.454-.849 0-1.536.651-1.536 1.454 0 .803.687 1.454 1.536 1.454ZM8.681 24.127c.849 0 1.536-.65 1.536-1.454 0-.803-.687-1.454-1.536-1.454-.848 0-1.536.651-1.536 1.454 0 .803.688 1.454 1.536 1.454ZM9.603 7.841H24.35"/></svg>
